X:1
T: Jim Kennedy's Favourite
C:
R:Reel
Q: 232
K:Em
M:4/4
L:1/8
|:((3GGG) DA BE E2|BE dE BE EF|GF GA BA B^d|((3efg) f^d ed eg|
((3GGG) DA BE E2|BE dE BE EF|GF GA BA B^d|((3efg) f^d e2 eg|
((3gag) ((3fgf) ed B^c|d2 ed Bd d2|((3gag) ((3fgf) ed B^d|((3efg) f^d e2 ef|
((3gag) ((3fgf) ed B^c|d2 ed Bd d2|bg af gf e^d|((3efg) f^d e2 g2|
